test_teplosystem/img/phone.svg

<svg width="14" height="14" viewBox="0 0 14 14" fill="none" xmlns="http://www.w3.org/2000/svg">
<path d="M12.9996 9.98431V11.7908C13.0003 11.9585 12.9659 12.1245 12.8986 12.2781C12.8313 12.4318 12.7325 12.5697 12.6087 12.6831C12.4849 12.7965 12.3387 12.8828 12.1795 12.9365C12.0203 12.9903 11.8517 13.0102 11.6843 12.9951C9.82768 12.7938 8.04426 12.1606 6.47734 11.1465C5.01953 10.222 3.78356 8.98843 2.8572 7.53351C1.83752 5.96259 1.20294 4.17405 1.0049 2.31277C0.98982 2.14625 1.00965 1.97843 1.06312 1.81998C1.11659 1.66153 1.20254 1.51592 1.31548 1.39244C1.42843 1.26896 1.5659 1.1703 1.71915 1.10274C1.87239 1.03519 2.03805 1.00022 2.20558 1.00006H4.01565C4.30846 0.997182 4.59233 1.10067 4.81435 1.29122C5.03636 1.48178 5.18138 1.74641 5.22236 2.03578C5.29876 2.61389 5.44044 3.18152 5.64471 3.72785C5.72589 3.94338 5.74346 4.17761 5.69534 4.4028C5.64721 4.62799 5.53542 4.83469 5.3732 4.99841L4.60694 5.76315C5.46585 7.27069 6.71655 8.51891 8.22708 9.37612L8.99334 8.61138C9.15739 8.44948 9.3645 8.33791 9.59013 8.28988C9.81577 8.24185 10.0505 8.25939 10.2664 8.3404C10.8138 8.54427 11.3826 8.68567 11.9619 8.76192C12.2549 8.80318 12.5226 8.95052 12.714 9.1759C12.9053 9.40128 13.007 9.68899 12.9996 9.98431Z" stroke="#F2F2F2" stroke-width="1.2" stroke-linecap="round" stroke-linejoin="round"/>
</svg>

<svg width="14" height="14" fill="none" xmlns="http://www.w3.org/2000/svg"><path d="M13 9.984v1.807a1.202 1.202 0 01-.82 1.146c-.16.053-.328.073-.496.058a11.955 11.955 0 01-5.207-1.848 11.754 11.754 0 01-3.62-3.613 11.902 11.902 0 01-1.852-5.221A1.202 1.202 0 012.205 1h1.81a1.208 1.208 0 011.207 1.036 7.72 7.72 0 00.423 1.692 1.202 1.202 0 01-.272 1.27l-.766.765a9.644 9.644 0 003.62 3.613l.766-.765a1.207 1.207 0 011.273-.27 7.76 7.76 0 001.696.42A1.208 1.208 0 0113 9.985z" stroke="#F2F2F2" stroke-width="1.2" stroke-linecap="round" stroke-linejoin="round"/></svg>
